src/status/16/si-syncthing-7.svg

<svg xmlns="http://www.w3.org/2000/svg" viewBox="0 0 16 16">
 <path style="fill:#2e3440;opacity:1;fill-opacity:1;stroke:none;fill-rule:nonzero" d="m 4.499813 14.06213 a 7 7 0 0 0 9.562178 -2.562178 7 7 0 0 0 0.03861 -0.07469 1.5 1.5 0 0 0 1.727774 -1.086342 A 1.5 1.5 0 0 0 14.967506 8.572179 7 7 0 0 0 11.499814 1.937773 7 7 0 0 0 7.595572 1.016525 1.5 1.5 0 0 0 5.964512 0.4041 1.5 1.5 0 0 0 4.859162 1.748314 7 7 0 0 0 1.937635 4.499951 7 7 0 0 0 1.10649 6.830158 1.5 1.5 0 0 0 0.037278 7.893029 1.5 1.5 0 0 0 0.817149 9.624284 1.5 1.5 0 0 0 1.098665 9.730434 1.5 1.5 0 0 0 1.230094 9.756697 7 7 0 0 0 4.499813 14.06213 z M 4.999811 13.196102 A 6 6 0 0 1 2.220222 9.58862 1.5 1.5 0 0 0 2.936068 8.669049 1.5 1.5 0 0 0 2.982098 8.397925 L 5.717 7.665 a 1.5 1.5 0 0 0 1.622148 0.600512 1.5 1.5 0 0 0 0.720248 -0.438914 l 4.823 2.036 a 1.5 1.5 0 0 0 0.353826 1.05903 6 6 0 0 1 -0.04057 0.07807 6 6 0 0 1 -8.196155 2.196153 z M 2.723302 7.432102 A 1.5 1.5 0 0 0 2.105909 6.915525 6 6 0 0 1 2.803661 4.99995 6 6 0 0 1 5.137726 2.734574 1.5 1.5 0 0 0 6.0252 3.314615 L 6.285 5.474 A 1.5 1.5 0 0 0 5.458023 6.699337 z M 8.447051 6.904998 A 1.5 1.5 0 0 0 8.399509 6.42875 1.5 1.5 0 0 0 7.279252 5.353467 L 7.02 3.194 a 1.5 1.5 0 0 0 0.822905 -1.187032 6 6 0 0 1 3.157431 0.796794 6 6 0 0 1 2.971326 5.705076 1.5 1.5 0 0 0 -0.697928 0.431504 z"/>
</svg>

<svg viewBox="0 0 16 16" xmlns="http://www.w3.org/2000/svg">
 <path d="m4.4998 14.062a7 7 0 0 0 9.5622-2.5622 7 7 0 0 0 0.03861-0.07469 1.5 1.5 0 0 0 1.7278-1.0863 1.5 1.5 0 0 0-0.86087-1.7667 7 7 0 0 0-3.4677-6.6344 7 7 0 0 0-3.9042-0.92125 1.5 1.5 0 0 0-1.6311-0.61242 1.5 1.5 0 0 0-1.1054 1.3442 7 7 0 0 0-2.9215 2.7516 7 7 0 0 0-0.83114 2.3302 1.5 1.5 0 0 0-1.0692 1.0629 1.5 1.5 0 0 0 0.77987 1.7313 1.5 1.5 0 0 0 0.28152 0.10615 1.5 1.5 0 0 0 0.13143 0.026263 7 7 0 0 0 3.2697 4.3054zm0.5-0.86603a6 6 0 0 1-2.7796-3.6075 1.5 1.5 0 0 0 0.71585-0.91957 1.5 1.5 0 0 0 0.04603-0.27112l2.7349-0.73292a1.5 1.5 0 0 0 1.6221 0.60051 1.5 1.5 0 0 0 0.72025-0.43891l4.823 2.036a1.5 1.5 0 0 0 0.35383 1.059 6 6 0 0 1-0.04057 0.07807 6 6 0 0 1-8.1962 2.1962zm-2.2765-5.764a1.5 1.5 0 0 0-0.61739-0.51658 6 6 0 0 1 0.69775-1.9156 6 6 0 0 1 2.3341-2.2654 1.5 1.5 0 0 0 0.88747 0.58004l0.2598 2.1594a1.5 1.5 0 0 0-0.82698 1.2253zm5.7237-0.5271a1.5 1.5 0 0 0-0.047542-0.47625 1.5 1.5 0 0 0-1.1203-1.0753l-0.25925-2.1595a1.5 1.5 0 0 0 0.8229-1.187 6 6 0 0 1 3.1574 0.79679 6 6 0 0 1 2.9713 5.7051 1.5 1.5 0 0 0-0.69793 0.4315z" fill="#2e3440"/>
</svg>
